X: 2
T: Three Little Drummers
P: piffero primo a0723
O: John Ciaglia
%R: jig
S: http://ancients.sudburymuster.org/mus/med/pdf/bonaparteC0.pdf
Z: 2020 John Chambers <jc:trillian.mit.edu>
M: 6/8
L: 1/8
K: Ador
(A//B//c//d//) |\
eAA eAA | (B/c/B/A/B) GBd | eAA eAA | {e}def (g/a/g/f/g) | eAA eAA | (B/c/B/A/B) G2d |
def gdB | {c}BAA A2 :: z | eaa eaa | dgg dgg | eaa eaa | {e}def (g/a/g/f/g) |
eaa eaa | dgg d2d | {e}def gdB | {c}BAA A2 :: z | eaa a^ga | bab ged |
{ef}eaa a^ga | {e}def (g/a/g/f/g) | eaa {b}a^ga | bab ged | {e}def ~gdB | (B/c/B/A/B) A2 :|

% %sep 1 1 200
% %center - - - - - - - - - -
% Whatever we want at the bottom of each set belongs here.
